assets/icons/cross-2.svg

<svg width="20" height="20" viewBox="0 0 20 20" fill="none" xmlns="http://www.w3.org/2000/svg">
<path d="M4.99957 4.32574C5.13387 4.32574 5.26447 4.36558 5.37457 4.43903L5.47711 4.52301L15.4761 14.522L15.565 14.6236C15.5912 14.6603 15.614 14.6994 15.6324 14.7408C15.6692 14.8235 15.6884 14.9129 15.69 15.0035C15.6916 15.0941 15.6751 15.1841 15.6412 15.2681C15.6072 15.3522 15.5568 15.4286 15.4927 15.4927C15.4286 15.5568 15.3522 15.6072 15.2681 15.6412C15.1841 15.6751 15.0941 15.6916 15.0035 15.69C14.9129 15.6884 14.8235 15.6692 14.7408 15.6324C14.6585 15.5957 14.5846 15.5428 14.523 15.4771L4.52301 5.47711C4.3966 5.35055 4.32574 5.17845 4.32574 4.99957C4.32586 4.82085 4.39671 4.64947 4.52301 4.52301C4.64947 4.39671 4.82085 4.32586 4.99957 4.32574Z" fill="currentColor" stroke="currentColor" stroke-width="0.1"/>
<path d="M15 4.32574C15.1787 4.32574 15.35 4.39674 15.4765 4.52301H15.4775C15.6037 4.64945 15.6747 4.82096 15.6748 4.99957C15.6748 5.17837 15.6038 5.35057 15.4775 5.47711L5.47751 15.4771L5.47556 15.4781C5.34765 15.5973 5.17866 15.6628 5.00388 15.6597C4.829 15.6566 4.66173 15.5852 4.53806 15.4615C4.4146 15.3379 4.34396 15.1713 4.34079 14.9966C4.3377 14.8218 4.40223 14.6519 4.52145 14.524L4.52341 14.523L14.5234 4.52301C14.6499 4.39672 14.8212 4.32575 15 4.32574Z" fill="currentColor" stroke="currentColor" stroke-width="0.1"/>
</svg>

<svg xmlns="http://www.w3.org/2000/svg" width="20" height="20" fill="none" viewBox="0 0 20 20"><path fill="currentColor" stroke="currentColor" stroke-width=".1" d="M5 4.326c.134 0 .264.04.375.113l.102.084 10 9.999.088.102a.67.67 0 0 1-.072.869.675.675 0 0 1-.97-.016l-10-10A.676.676 0 0 1 5 4.326Z"/><path fill="currentColor" stroke="currentColor" stroke-width=".1" d="M15 4.326c.179 0 .35.07.476.197h.001a.675.675 0 0 1 0 .954l-10 10-.001.001a.675.675 0 0 1-.955-.954l.002-.001 10-10A.67.67 0 0 1 15 4.326Z"/></svg>
